Simply-Cyan-Circles/scalable/mimes/application-x-arj.svg

<?xml version="1.0" encoding="UTF-8" standalone="no"?><svg xmlns:dc="http://purl.org/dc/elements/1.1/" xmlns:cc="http://creativecommons.org/ns#" xmlns:rdf="http://www.w3.org/1999/02/22-rdf-syntax-ns#" xmlns="http://www.w3.org/2000/svg" width="48" height="48" viewBox="0 0 12.7 12.7"><metadata><rdf:RDF><cc:Work><dc:format>image/svg+xml</dc:format><dc:type rdf:resource="http://purl.org/dc/dcmitype/StillImage"/><dc:title/></cc:Work></rdf:RDF></metadata><path d="M1.21.86L.14 3.66h6.04V.86H1.21zm5.18 0v2.8h6.11L11.4.86H6.4zM.19 3.89v6.31c0 .64.25 1.18.74 1.64.5.45 1.08.67 1.78.67h7.25c.7 0 1.28-.22 1.78-.67.49-.46.73-1 .73-1.64V3.9h-1.12v6.3c0 .36-.13.66-.4.91a1.4 1.4 0 0 1-.99.38H2.71a1.4 1.4 0 0 1-.99-.38 1.19 1.19 0 0 1-.41-.9V3.88H.19zm1.53 1.4v1.06H2v1.06h.53V6.35h.26V5.29H1.72zm1.32.05v.53h.53v-.53h-.53zm.53.53v.53h.53v-.53h-.53zm.53 0h.53v-.53H4.1v.53zm.53 0v.53h.53v-.53h-.53zm.53 0h.52v-.53h-.52v.53zm.52 0v.53h.53v-.53h-.53zm.53 0h.53v-.53h-.53v.53zm.53 0v.53h.53v-.53h-.53zm.53 0h.53v-.53h-.53v.53zm.53 0v.53h.53v-.53H7.8zm.53 0h.53v-.53h-.53v.53zm.53 0v.53h.53v-.53h-.53zm.53 0h.53v-.53h-.53v.53zm.53 0v.53h.53v-.53h-.53zm.53 0h.53v-.53h-.53v.53zm-8.46-.31h.53v.53h-.53v-.53zm5.99 2.29v.4h.42v-.4h-.42zm-.56.54a.42.42 0 0 0-.37.22c0-.06.02-.14 0-.18h-.38v1.76h.42V9.12c.01-.2.19-.33.38-.32v-.4a.42.42 0 0 0-.05-.01zm-2.28 0a.84.84 0 0 0-.11.01.87.87 0 0 0-.74.75c-.07.39.1.83.48 1 .3.14.71.12.94-.15.06-.08.02.09.03.13-.02.1.08.05.13.06h.26V8.43h-.39v.24a.66.66 0 0 0-.51-.28.84.84 0 0 0-.09 0zm2.84.04v1.75c.05.19-.22.13-.17.28v.32a.57.57 0 0 0 .58-.5c.02-.62.01-1.23.01-1.85h-.42zm-2.77.35a.51.51 0 0 1 .52.49c.03.25-.13.53-.4.57-.25.05-.55-.09-.6-.35-.1-.28.05-.63.35-.7a.55.55 0 0 1 .13-.01z" fill="#5beedc"/></svg>

<?xml version="1.0" encoding="UTF-8" standalone="no"?>
<svg
   xmlns:dc="http://purl.org/dc/elements/1.1/"
   xmlns:cc="http://creativecommons.org/ns#"
   xmlns:rdf="http://www.w3.org/1999/02/22-rdf-syntax-ns#"
   xmlns:svg="http://www.w3.org/2000/svg"
   xmlns="http://www.w3.org/2000/svg"
   xmlns:sodipodi="http://sodipodi.sourceforge.net/DTD/sodipodi-0.dtd"
   xmlns:inkscape="http://www.inkscape.org/namespaces/inkscape"
   width="48"
   height="48"
   viewBox="0 0 12.7 12.7"
   version="1.1"
   id="svg6"
   sodipodi:docname="application-x-arj.svg"
   inkscape:version="0.92.4 (5da689c313, 2019-01-14)">
  <defs
     id="defs10" />
  <sodipodi:namedview
     pagecolor="#ffffff"
     bordercolor="#666666"
     borderopacity="1"
     objecttolerance="10"
     gridtolerance="10"
     guidetolerance="10"
     inkscape:pageopacity="0"
     inkscape:pageshadow="2"
     inkscape:window-width="1087"
     inkscape:window-height="480"
     id="namedview8"
     showgrid="false"
     inkscape:zoom="4.9166667"
     inkscape:cx="2.1355932"
     inkscape:cy="24"
     inkscape:window-x="0"
     inkscape:window-y="25"
     inkscape:window-maximized="0"
     inkscape:current-layer="svg6" />
  <metadata
     id="metadata2">
    <rdf:RDF>
      <cc:Work>
        <dc:format>image/svg+xml</dc:format>
        <dc:type
           rdf:resource="http://purl.org/dc/dcmitype/StillImage" />
        <dc:title></dc:title>
      </cc:Work>
    </rdf:RDF>
  </metadata>
  <path
     d="m 1.21,0.86 -1.07,2.8 h 6.04 v -2.8 z m 5.18,0 v 2.8 h 6.11 l -1.1,-2.8 h -5 z m -6.2,3.03 v 6.31 c 0,0.64 0.25,1.18 0.74000003,1.64 C 1.43,12.29 2.01,12.51 2.71,12.51 H 9.9600003 C 10.66,12.51 11.24,12.29 11.74,11.84 c 0.49,-0.46 0.73,-1 0.73,-1.64 V 3.9 h -1.12 v 6.3 c 0,0.36 -0.13,0.66 -0.4,0.91 A 1.4,1.4 0 0 1 9.9600003,11.49 H 2.71 A 1.4,1.4 0 0 1 1.72,11.11 1.19,1.19 0 0 1 1.31,10.21 V 3.88 H 0.19 Z m 1.53,1.4 V 6.35 H 2 V 7.41 H 2.53 V 6.35 H 2.79 V 5.29 Z M 3.04,5.34 V 5.87 H 3.57 V 5.34 Z M 3.57,5.87 V 6.4 H 4.1 V 5.87 Z m 0.53,0 H 4.63 V 5.34 H 4.1 Z m 0.53,0 V 6.4 H 5.16 V 5.87 Z m 0.53,0 H 5.68 V 5.34 H 5.16 Z m 0.52,0 V 6.4 H 6.21 V 5.87 Z m 0.53,0 H 6.74 V 5.34 H 6.21 Z m 0.53,0 V 6.4 H 7.27 V 5.87 Z m 0.53,0 H 7.8 V 5.34 H 7.27 Z m 0.53,0 V 6.4 H 8.33 V 5.87 Z m 0.53,0 H 8.86 V 5.34 H 8.33 Z m 0.53,0 V 6.4 H 9.39 V 5.87 Z m 0.53,0 H 9.9200003 V 5.34 H 9.39 Z m 0.5300003,0 V 6.4 H 10.45 V 5.87 Z M 10.45,5.87 h 0.53 V 5.34 H 10.45 Z M 1.99,5.56 H 2.52 V 6.09 H 1.99 Z m 5.99,2.29 v 0.4 H 8.4 V 7.85 Z M 7.42,8.39 A 0.42,0.42 0 0 0 7.05,8.61 c 0,-0.06 0.02,-0.14 0,-0.18 H 6.67 v 1.76 H 7.09 V 9.12 C 7.1,8.92 7.28,8.79 7.47,8.8 V 8.4 A 0.42,0.42 0 0 0 7.42,8.39 Z m -2.28,0 A 0.84,0.84 0 0 0 5.03,8.4 0.87,0.87 0 0 0 4.29,9.15 c -0.07,0.39 0.1,0.83 0.48,1 0.3,0.14 0.71,0.12 0.94,-0.15 0.06,-0.08 0.02,0.09 0.03,0.13 -0.02,0.1 0.08,0.05 0.13,0.06 H 6.13 V 8.43 H 5.74 v 0.24 a 0.66,0.66 0 0 0 -0.51,-0.28 0.84,0.84 0 0 0 -0.09,0 z m 2.84,0.04 v 1.75 c 0.05,0.19 -0.22,0.13 -0.17,0.28 v 0.32 a 0.57,0.57 0 0 0 0.58,-0.5 C 8.41,9.66 8.4,9.05 8.4,8.43 Z M 5.21,8.78 A 0.51,0.51 0 0 1 5.73,9.27 C 5.76,9.52 5.6,9.8 5.33,9.84 5.08,9.89 4.78,9.75 4.73,9.49 4.63,9.21 4.78,8.86 5.08,8.79 A 0.55,0.55 0 0 1 5.21,8.78 Z"
     id="path4"
     inkscape:connector-curvature="0"
     style="fill:#5beedc" />
</svg>
